X:1
T:Oak Lea, 77.77.77.77.77
T:Oak Lea, 77.77.77.77.77
T:Otto Moritz David Goldschmidt, 1874
T:Public Domain Courtesy of the Cyber Hymnal™
C:Otto Moritz David Goldschmidt, 1874
Z:Public Domain
Z:Courtesy of the Cyber Hymnal™
%%score ( 1 2 ) ( 3 4 )
L:1/8
Q:1/4=107
M:4/4
K:F
V:1 treble 
V:2 treble 
V:3 bass 
V:4 bass 
V:1
|: [FA]3 [FA] [Fc]2 [FB]2 | [FA]2 [FA]2 [EG]4 | [FA]3 [FA] F2 [Fc]2 | [FB]2 [EG]2 [FA]4 :| %4
 [FA]2 [DG]2 [EB]3 [EG] | [FA]2 [FB]2 c4 | [Dd]2 [FA]2 [FB]2 [Fc]2 | [Fd]2 [Fd]2 [Ge]4 | %8
 [Ff]2 [Fd]2 [GB]2 [FA]2 | [DF]2 [EG]2 [FA]4 | [Ff]2 [Fd]2 [GB]2 [FA]2 | [Fd]2 [Fc]2 G4 | %12
 [FA]3 [FA] [Fc]2 [_EF]2 | [DF]2 [FB]2 [EA]4 | [FA]2 [EA]2 d2 [Fc]2 | [FB]4 [EG]4 | [CF]8 |] %17
V:2
|: x8 | x8 | x8 | x8 :| x8 | x4 (F2 _E2) | x8 | x8 | x8 | x8 | x8 | x4 (F2 E2) | x8 | x8 | %14
 x4 (DE) x2 | x8 | x8 |] %17
V:3
|: [F,C]3 [F,C] [A,C]2 [B,D]2 | [F,C]2 [A,,C]2 [C,C]4 | [F,C]3 [F,C] B,2 [A,C]2 | %3
 [G,D]2 [C,C]2 [F,C]4 :| [D,D]2 [G,B,]2 [G,B,]3 [D,B,] | [D,A,]2 [D,F,]2 [A,,F,]4 | %6
 [B,,F,]2 [_E,F,]2 [D,F,]2 [C,A,]2 | [B,,B,]2 [B,D]2 [B,C]4 | [A,C]2 [A,C]2 [E,C]2 [F,C]2 | %9
 [B,D]2 [G,B,]2 [F,C]4 | [A,C]2 [D,C]2 [E,C]2 [F,C]2 | [G,B,]2 C2 C4 | %12
 [F,C]3 [F,C] [A,C]2 [A,,C]2 | [B,,B,]2 [D,F,]2 [^C,A,]4 | [D,A,]2 [C,A,]2 [B,,F,]2 [A,,F,]2 | %15
 (F,2 D2) (C2 B,2) | [F,,A,]8 |] %17
V:4
|: x8 | x8 | x4 B,2 x2 | x8 :| x8 | x8 | x8 | x8 | x8 | x8 | x8 | x2 (A,B,) C4 | x8 | x8 | x8 | %15
 G,,4 C,4 | x8 |] %17

